app/assets/images/payment_icons/discover.svg

<svg xmlns="http://www.w3.org/2000/svg" width="38" height="24" viewBox="0 0 38 24" fill="none" aria-labelledby="pi-discover" role="img"><title id="pi-discover">Discover</title><g clip-path="url(#pi-discover-clip0_4068_894)"><rect width="38" height="24" fill="white"/><path d="M3.57 7.16H2V12.66H3.57C4.4 12.66 5 12.46 5.53 12.03C6.16 11.51 6.53 10.73 6.53 9.92C6.52 8.29 5.31 7.16 3.57 7.16ZM4.83 11.3C4.49 11.6 4.06 11.74 3.36 11.74H3.07V8.1H3.36C4.05 8.1 4.47 8.22 4.83 8.54C5.2 8.87 5.42 9.38 5.42 9.91C5.42 10.44 5.2 10.97 4.83 11.3ZM7.02 7.16H8.09V12.66H7.02V7.16ZM10.71 9.27C10.07 9.03 9.88 8.87 9.88 8.58C9.88 8.23 10.22 7.97 10.68 7.97C11 7.97 11.27 8.1 11.54 8.42L12.1 7.69C11.64 7.29 11.09 7.08 10.48 7.08C9.51 7.08 8.76 7.76 8.76 8.66C8.76 9.42 9.11 9.81 10.11 10.17C10.53 10.32 10.74 10.42 10.85 10.48C11.06 10.62 11.17 10.82 11.17 11.05C11.17 11.5 10.82 11.83 10.34 11.83C9.83 11.83 9.42 11.57 9.17 11.1L8.48 11.77C8.97 12.5 9.57 12.82 10.38 12.82C11.49 12.82 12.28 12.08 12.28 11.01C12.3 10.12 11.93 9.72 10.71 9.27ZM12.63 9.92C12.63 11.54 13.9 12.79 15.53 12.79C15.99 12.79 16.39 12.7 16.87 12.47V11.21C16.44 11.64 16.06 11.81 15.58 11.81C14.5 11.81 13.73 11.03 13.73 9.91C13.73 8.85 14.52 8.02 15.53 8.02C16.04 8.02 16.43 8.2 16.87 8.64V7.38C16.4 7.14 16.01 7.04 15.55 7.04C13.94 7.04 12.63 8.32 12.63 9.92ZM25.39 10.86L23.92 7.16H22.75L25.08 12.8H25.66L28.03 7.16H26.87L25.39 10.86ZM28.52 12.66H31.56V11.73H29.59V10.25H31.49V9.32H29.59V8.1H31.56V7.16H28.52V12.66ZM35.81 8.79C35.81 7.76 35.1 7.17 33.86 7.17H32.27V12.67H33.34V10.46H33.48L34.96 12.67H36.28L34.55 10.35C35.36 10.18 35.81 9.63 35.81 8.79ZM33.65 9.7H33.34V8.03H33.67C34.34 8.03 34.7 8.31 34.7 8.85C34.7 9.4 34.34 9.7 33.65 9.7Z" fill="#231F20"/><path d="M20.16 12.86C20.9374 12.86 21.6829 12.5512 22.2325 12.0015C22.7822 11.4519 23.091 10.7064 23.091 9.929C23.091 9.15165 22.7822 8.40614 22.2325 7.85647C21.6829 7.3068 20.9374 6.998 20.16 6.998C19.3827 6.998 18.6371 7.3068 18.0875 7.85647C17.5378 8.40614 17.229 9.15165 17.229 9.929C17.229 10.7064 17.5378 11.4519 18.0875 12.0015C18.6371 12.5512 19.3827 12.86 20.16 12.86Z" fill="url(#pi-discover-paint0_linear_4068_894)"/><path opacity="0.65" d="M20.16 12.86C20.9374 12.86 21.6829 12.5512 22.2325 12.0015C22.7822 11.4519 23.091 10.7064 23.091 9.929C23.091 9.15165 22.7822 8.40614 22.2325 7.85647C21.6829 7.3068 20.9374 6.998 20.16 6.998C19.3827 6.998 18.6371 7.3068 18.0875 7.85647C17.5378 8.40614 17.229 9.15165 17.229 9.929C17.229 10.7064 17.5378 11.4519 18.0875 12.0015C18.6371 12.5512 19.3827 12.86 20.16 12.86Z" fill="url(#pi-discover-paint1_linear_4068_894)"/><path d="M36.57 7.506C36.57 7.406 36.5 7.356 36.39 7.356H36.23V7.836H36.35V7.646L36.49 7.836H36.63L36.47 7.636C36.53 7.626 36.57 7.576 36.57 7.506ZM36.37 7.576H36.35V7.446H36.37C36.43 7.446 36.46 7.466 36.46 7.506C36.46 7.556 36.43 7.576 36.37 7.576Z" fill="#231F20"/><path d="M36.41 7.176C36.18 7.176 35.99 7.366 35.99 7.596C35.99 7.826 36.18 8.016 36.41 8.016C36.64 8.016 36.83 7.826 36.83 7.596C36.83 7.366 36.64 7.176 36.41 7.176ZM36.41 7.946C36.23 7.946 36.07 7.796 36.07 7.596C36.07 7.406 36.22 7.246 36.41 7.246C36.59 7.246 36.74 7.406 36.74 7.596C36.74 7.786 36.59 7.946 36.41 7.946Z" fill="#231F20"/><path d="M38 13.0586C38 13.0586 27.7057 20.5658 8.97623 24H35.8835C36.4291 24 35.932 24 38 24C38 21.5 37.9956 22.4765 38 21.8971V18.563V13.0597V13.0586Z" fill="#F48120"/></g><defs><linearGradient id="pi-discover-paint0_linear_4068_894" x1="21.657" y1="12.275" x2="19.632" y2="9.104" gradientUnits="userSpaceOnUse"><stop stop-color="#F89F20"/><stop offset="0.25" stop-color="#F79A20"/><stop offset="0.533" stop-color="#F68D20"/><stop offset="0.62" stop-color="#F58720"/><stop offset="0.723" stop-color="#F48120"/><stop offset="1" stop-color="#F37521"/></linearGradient><linearGradient id="pi-discover-paint1_linear_4068_894" x1="21.338" y1="12.232" x2="18.378" y2="6.446" gradientUnits="userSpaceOnUse"><stop stop-color="#F58720"/><stop offset="0.359" stop-color="#E16F27"/><stop offset="0.703" stop-color="#D4602C"/><stop offset="0.982" stop-color="#D05B2E"/></linearGradient><clipPath id="pi-discover-clip0_4068_894"><rect width="38" height="24" fill="white"/></clipPath></defs></svg>

<svg xmlns="http://www.w3.org/2000/svg" width="38" height="24" fill="none" aria-labelledby="pi-discover" role="img" viewBox="0 0 38 24"><title id="pi-discover">Discover</title><g clip-path="url(#pi-discover-clip0_4068_894)"><path fill="#fff" d="M0 0h38v24H0z"/><path fill="#231F20" d="M3.57 7.16H2v5.5h1.57c.83 0 1.43-.2 1.96-.63.63-.52 1-1.3 1-2.11-.01-1.63-1.22-2.76-2.96-2.76m1.26 4.14c-.34.3-.77.44-1.47.44h-.29V8.1h.29c.69 0 1.11.12 1.47.44.37.33.59.84.59 1.37s-.22 1.06-.59 1.39m2.19-4.14h1.07v5.5H7.02zm3.69 2.11c-.64-.24-.83-.4-.83-.69 0-.35.34-.61.8-.61.32 0 .59.13.86.45l.56-.73c-.46-.4-1.01-.61-1.62-.61-.97 0-1.72.68-1.72 1.58 0 .76.35 1.15 1.35 1.51.42.15.63.25.74.31.21.14.32.34.32.57 0 .45-.35.78-.83.78-.51 0-.92-.26-1.17-.73l-.69.67c.49.73 1.09 1.05 1.9 1.05 1.11 0 1.9-.74 1.9-1.81.02-.89-.35-1.29-1.57-1.74m1.92.65c0 1.62 1.27 2.87 2.9 2.87.46 0 .86-.09 1.34-.32v-1.26c-.43.43-.81.6-1.29.6-1.08 0-1.85-.78-1.85-1.9 0-1.06.79-1.89 1.8-1.89.51 0 .9.18 1.34.62V7.38c-.47-.24-.86-.34-1.32-.34-1.61 0-2.92 1.28-2.92 2.88m12.76.94-1.47-3.7h-1.17l2.33 5.64h.58l2.37-5.64h-1.16zm3.13 1.8h3.04v-.93h-1.97v-1.48h1.9v-.93h-1.9V8.1h1.97v-.94h-3.04zm7.29-3.87c0-1.03-.71-1.62-1.95-1.62h-1.59v5.5h1.07v-2.21h.14l1.48 2.21h1.32l-1.73-2.32c.81-.17 1.26-.72 1.26-1.56m-2.16.91h-.31V8.03h.33c.67 0 1.03.28 1.03.82 0 .55-.36.85-1.05.85"/><path fill="url(#pi-discover-paint0_linear_4068_894)" d="M20.16 12.86a2.93 2.93 0 1 0 0-5.861 2.93 2.93 0 0 0 0 5.861"/><path fill="url(#pi-discover-paint1_linear_4068_894)" d="M20.16 12.86a2.93 2.93 0 1 0 0-5.861 2.93 2.93 0 0 0 0 5.861" opacity=".65"/><path fill="#231F20" d="M36.57 7.506c0-.1-.07-.15-.18-.15h-.16v.48h.12v-.19l.14.19h.14l-.16-.2c.06-.01.1-.06.1-.13m-.2.07h-.02v-.13h.02q.09 0 .09.06c0 .05-.03.07-.09.07"/><path fill="#231F20" d="M36.41 7.176c-.23 0-.42.19-.42.42s.19.42.42.42.42-.19.42-.42-.19-.42-.42-.42m0 .77c-.18 0-.34-.15-.34-.35 0-.19.15-.35.34-.35.18 0 .33.16.33.35s-.15.35-.33.35"/><path fill="#F48120" d="M38 13.059S27.706 20.566 8.976 24H38c0-2.5-.004-1.523 0-2.103V13.06"/></g><defs><linearGradient id="pi-discover-paint0_linear_4068_894" x1="21.657" x2="19.632" y1="12.275" y2="9.104" gradientUnits="userSpaceOnUse"><stop stop-color="#F89F20"/><stop offset=".25" stop-color="#F79A20"/><stop offset=".533" stop-color="#F68D20"/><stop offset=".62" stop-color="#F58720"/><stop offset=".723" stop-color="#F48120"/><stop offset="1" stop-color="#F37521"/></linearGradient><linearGradient id="pi-discover-paint1_linear_4068_894" x1="21.338" x2="18.378" y1="12.232" y2="6.446" gradientUnits="userSpaceOnUse"><stop stop-color="#F58720"/><stop offset=".359" stop-color="#E16F27"/><stop offset=".703" stop-color="#D4602C"/><stop offset=".982" stop-color="#D05B2E"/></linearGradient><clipPath id="pi-discover-clip0_4068_894"><path fill="#fff" d="M0 0h38v24H0z"/></clipPath></defs></svg>
